X: 159
T: dongshanshang diandeng xishanshang ming
L: 1/8
M: 2/4
K: F
A c d c/ d/ [I:setbarnb 1]| 
f d c d | 
G c d/ c/ A/ G/ | 
F4 | 
A c d c/ d/ | 
A d c G | 
F E/ D/C2 | 
F C/ D/ E D | 
C4 |]

@@@ Tune index: 9033
